X: 154
T: No_78_Seventh_Song_of_the_Dog_Feast.krn
%%abc-version 2.0
%%abcx-abcm2ps-target-version 5.9.1 (29 Sep 2008)
%%abc-creator hum2abc beta
%%abcx-conversion-date 2020/08/10 18:54:56
%%gracespace 0 6 6
%%humdrum-veritas 1301124968
%%humdrum-veritas-data 485843086
%%linebreak <none>
%%barnumbers 0
L: 1/8
M: 5/4
%%staves {1 2}
V: 1 clef=bass
V: 2 clef=bass
K: C
[V:1] [K:clef=bass][M:5/4]C<CC2C<A, A,<G,E,2 | 
[V:2] [K:clef=bass][M:5/4](3!accent!G,, z G,, (3!accent!G,, z G,, (3!accent!G,, z G,, (3!accent!G,, z G,, (3!accent!G,, z G,, | 
[V:1] C<CC2C<A, A,<G,E,2 ]|:  
[V:2] z8z2 ]|:  
[V:1] A,<A,A,G,/>A,/G,<E, E,<D,C,2 ||  
[V:2] z8z2 ||  
[V:1] [M:2/4]E,<E, E,/D,/D,/E,/ | 
[V:2] [M:2/4]z4 | 
[V:1] D,/C,C,/ C,A,, | 
[V:2] z4 | 
[V:1] C,<C, C,/C,3/ | 
[V:2] z4 | 
[V:1] E,/E,/C, C,3/C,/ | 
[V:2] z4 | 
[V:1] C,4- | 
[V:2] z4 | 
[V:1] C,4 :|]  
[V:2] z4 :|]  


